X:100
T: Big Snug's Reel
C: John Whelan
Z: B.Black
R: reel
M: 4/4
L: 1/8
K: D
f2 ed f2 ed|BdAd BdAd|f2 ed f2 ed|BABc dAFA |
f2 ed f2 ed|BdAd BdAd|f2 ed f2 ed|BABc dAFE ||
FA (3AAA FADd|cA (3AAA EFGE|FA (3AAA FADd|cded cAGE :|
FD (3DDD A,DFA|GE (3EEE =CEGE|FD (3DDD A,DFA|\
(3Bcd ed cAGE :|
